X:5
T:Mrs.Mitford's Fancy. Tho24CDs1792.05
M:2/4
L:1/8
Q:1/4=120
C:"77"
B:Thompson 24 CDs 1792
Z:Village Music Project, Chris Partington, 1999 & 2017
W:First Lady set to the 2nd Gent: & turn the 3rd . the Gent do the same :|
W:Lead down the middle up again Allemande with your partner :|
K:E
|:E2(E/F/G/F/)|EEEG|BBBe|(~cB)B2|e2(e/f/g/f/)|eec2|BB (c/B/)(A/G/)|~G2F2|
E2(E/F/G/F/)|EEEG|BBBe|(~cB)B2|bgbg|{g}fefg|ee (g/f/e/d/)|(d2e2)||
g2(ga)|(gf)f2|e2(e/f/g/e/)|(ed)d2|c2(c/d/e/c/)|BBeg|gebg|(gf)f2|
E2E/F/G/F/|EEEG|BBBe|(~cB)B2|bgbg|{g}~fefg|ee (g/f/e/d/)|(d2e2)|]

